svgs/materials/action/flaky.svg

<svg xmlns="http://www.w3.org/2000/svg" enable-background="new 0 0 24 24" height="24" viewBox="0 0 24 24" width="24"><g><rect fill="none" height="24" width="24"/></g><g><path d="M14.05,17.58l-0.01,0.01l-2.4-2.4l1.06-1.06l1.35,1.35L16.54,13l1.06,1.06 l-3.54,3.54L14.05,17.58z M12,2C6.5,2,2,6.5,2,12s4.5,10,10,10s10-4.5,10-10S17.5,2,12,2z M7.34,6.28l1.41,1.41l1.41-1.41 l1.06,1.06L9.81,8.75l1.41,1.41l-1.06,1.06L8.75,9.81l-1.41,1.41l-1.06-1.06l1.41-1.41L6.28,7.34L7.34,6.28z M12,20 c-2.2,0-4.2-0.9-5.7-2.3L17.7,6.3C19.1,7.8,20,9.8,20,12C20,16.4,16.4,20,12,20z" fill-rule="evenodd"/></g></svg>

<?xml version="1.0" encoding="UTF-8" standalone="no"?>
<svg
   enable-background="new 0 0 24 24"
   height="24"
   viewBox="0 0 24 24"
   width="24"
   version="1.1"
   id="svg380"
   sodipodi:docname="flaky.svg"
   inkscape:version="1.2 (dc2aeda, 2022-05-15)"
   xmlns:inkscape="http://www.inkscape.org/namespaces/inkscape"
   xmlns:sodipodi="http://sodipodi.sourceforge.net/DTD/sodipodi-0.dtd"
   xmlns="http://www.w3.org/2000/svg"
   xmlns:svg="http://www.w3.org/2000/svg">
  <defs
     id="defs384" />
  <sodipodi:namedview
     id="namedview382"
     pagecolor="#ffffff"
     bordercolor="#000000"
     borderopacity="0.25"
     inkscape:showpageshadow="2"
     inkscape:pageopacity="0.0"
     inkscape:pagecheckerboard="0"
     inkscape:deskcolor="#d1d1d1"
     showgrid="false"
     inkscape:zoom="9.8333333"
     inkscape:cx="12.050847"
     inkscape:cy="12"
     inkscape:window-width="1309"
     inkscape:window-height="456"
     inkscape:window-x="0"
     inkscape:window-y="25"
     inkscape:window-maximized="0"
     inkscape:current-layer="svg380" />
  <path
     id="rect372"
     style="fill:none"
     d="M 0,0 H 24 V 24 H 0 Z" />
  <path
     d="m 14.05,17.58 -0.01,0.01 -2.4,-2.4 1.06,-1.06 1.35,1.35 2.49,-2.48 1.06,1.06 -3.54,3.54 z M 12,2 C 6.5,2 2,6.5 2,12 2,17.5 6.5,22 12,22 17.5,22 22,17.5 22,12 22,6.5 17.5,2 12,2 Z M 7.34,6.28 8.75,7.69 10.16,6.28 11.22,7.34 9.81,8.75 11.22,10.16 10.16,11.22 8.75,9.81 7.34,11.22 6.28,10.16 7.69,8.75 6.28,7.34 Z M 12,20 C 9.8,20 7.8,19.1 6.3,17.7 L 17.7,6.3 c 1.4,1.5 2.3,3.5 2.3,5.7 0,4.4 -3.6,8 -8,8 z"
     fill-rule="evenodd"
     id="path376" />
</svg>
